(G-CODE GENERATED BY FLATCAM v8.97 - www.flatcam.org - Version Date: 2019/09/27)

(Name: T_0.1)
(Type: G-code from Geometry)
(Units: MM)

(Created on Friday, 10 September 2021 at 11:47)

(TOOL DIAMETER: 0.1 mm)
(Feedrate: 650.0 mm/min)
(Feedrate_Z: 650.0 mm/min)
(Feedrate rapids 79.9998 mm/min)

(Z_Cut: -0.11 mm)
(DepthPerCut: 0.055 mm <=>2 passes)
(Z_Move: 5.0 mm)
(Z Toolchange: 12.7 mm)
(X,Y Toolchange: 0.0000, 0.0000 mm)
(Z Start: None mm)
(Z End: 90.0 mm)
(Steps per circle: 128)
(Postprocessor Geometry: default)

(X range:    0.9661 ...   35.8439  mm)
(Y range:    0.9661 ...   22.8339  mm)

(Spindle Speed: 12000 RPM)

G21
G90
G94

G01 F650.00
G00 Z5.0000

M03 S12000
G00 X10.6471 Y9.8412
G01 F650.00
G01 Z-0.0550
G01 F650.00
G01 X10.6535 Y9.8330
G01 X10.6595 Y9.8223
G01 X10.6615 Y9.8175
G01 X10.6645 Y9.8082
G01 X10.6679 Y9.7994
G01 X10.6698 Y9.7926
G01 X10.6712 Y9.7844
G01 X10.6725 Y9.7664
G01 X10.6725 Y8.7433
G01 X10.7848 Y8.4722
G01 X13.5322 Y5.7248
G01 X13.8033 Y5.6125
G01 X14.8623 Y5.6125
G01 X14.8674 Y5.6122
G01 X14.8773 Y5.6108
G01 X14.8872 Y5.6098
G01 X14.8920 Y5.6089
G01 X14.9014 Y5.6064
G01 X14.9081 Y5.6037
G01 X14.9163 Y5.5994
G01 X14.9248 Y5.5957
G01 X14.9308 Y5.5923
G01 X14.9393 Y5.5862
G01 X14.9515 Y5.5756
G01 X16.9602 Y3.5669
G01 X16.9638 Y3.5628
G01 X16.9694 Y3.5551
G01 X16.9768 Y3.5463
G01 X16.9841 Y3.5336
G01 X16.9861 Y3.5288
G01 X16.9890 Y3.5196
G01 X16.9932 Y3.5086
G01 X16.9959 Y3.4952
G01 X17.4440 Y3.0471
G01 X18.0760 Y3.0471
G01 X18.5229 Y3.4940
G01 X18.5229 Y4.1260
G01 X18.0740 Y4.5749
G01 X18.0650 Y4.5760
G01 X18.0532 Y4.5790
G01 X18.0465 Y4.5817
G01 X18.0383 Y4.5860
G01 X18.0298 Y4.5897
G01 X18.0238 Y4.5931
G01 X18.0153 Y4.5992
G01 X18.0031 Y4.6098
G01 X15.6378 Y6.9752
G01 X15.3667 Y7.0875
G01 X14.3077 Y7.0875
G01 X14.3026 Y7.0878
G01 X14.2927 Y7.0892
G01 X14.2828 Y7.0902
G01 X14.2780 Y7.0911
G01 X14.2686 Y7.0936
G01 X14.2619 Y7.0963
G01 X14.2537 Y7.1006
G01 X14.2452 Y7.1043
G01 X14.2411 Y7.1065
G01 X14.2307 Y7.1138
G01 X14.2185 Y7.1244
G01 X12.1826 Y9.1605
G01 X12.1752 Y9.1703
G01 X12.1678 Y9.1791
G01 X12.1652 Y9.1832
G01 X12.1594 Y9.1942
G01 X12.1507 Y9.2191
G01 X12.1485 Y9.2320
G01 X12.1475 Y9.2477
G01 X12.1476 Y9.7690
G01 X12.1506 Y9.7937
G01 X12.1544 Y9.8076
G01 X12.1654 Y9.8310
G01 X12.1729 Y9.8422
G01 X12.1729 Y10.4760
G01 X11.7260 Y10.9229
G01 X11.0940 Y10.9229
G01 X10.6471 Y10.4760
G01 X10.6471 Y9.8412
G00 X10.6471 Y9.8412
G01 F650.00
G01 Z-0.1100
G01 F650.00
G01 X10.6535 Y9.8330
G01 X10.6595 Y9.8223
G01 X10.6615 Y9.8175
G01 X10.6645 Y9.8082
G01 X10.6679 Y9.7994
G01 X10.6698 Y9.7926
G01 X10.6712 Y9.7844
G01 X10.6725 Y9.7664
G01 X10.6725 Y8.7433
G01 X10.7848 Y8.4722
G01 X13.5322 Y5.7248
G01 X13.8033 Y5.6125
G01 X14.8623 Y5.6125
G01 X14.8674 Y5.6122
G01 X14.8773 Y5.6108
G01 X14.8872 Y5.6098
G01 X14.8920 Y5.6089
G01 X14.9014 Y5.6064
G01 X14.9081 Y5.6037
G01 X14.9163 Y5.5994
G01 X14.9248 Y5.5957
G01 X14.9308 Y5.5923
G01 X14.9393 Y5.5862
G01 X14.9515 Y5.5756
G01 X16.9602 Y3.5669
G01 X16.9638 Y3.5628
G01 X16.9694 Y3.5551
G01 X16.9768 Y3.5463
G01 X16.9841 Y3.5336
G01 X16.9861 Y3.5288
G01 X16.9890 Y3.5196
G01 X16.9932 Y3.5086
G01 X16.9959 Y3.4952
G01 X17.4440 Y3.0471
G01 X18.0760 Y3.0471
G01 X18.5229 Y3.4940
G01 X18.5229 Y4.1260
G01 X18.0740 Y4.5749
G01 X18.0650 Y4.5760
G01 X18.0532 Y4.5790
G01 X18.0465 Y4.5817
G01 X18.0383 Y4.5860
G01 X18.0298 Y4.5897
G01 X18.0238 Y4.5931
G01 X18.0153 Y4.5992
G01 X18.0031 Y4.6098
G01 X15.6378 Y6.9752
G01 X15.3667 Y7.0875
G01 X14.3077 Y7.0875
G01 X14.3026 Y7.0878
G01 X14.2927 Y7.0892
G01 X14.2828 Y7.0902
G01 X14.2780 Y7.0911
G01 X14.2686 Y7.0936
G01 X14.2619 Y7.0963
G01 X14.2537 Y7.1006
G01 X14.2452 Y7.1043
G01 X14.2411 Y7.1065
G01 X14.2307 Y7.1138
G01 X14.2185 Y7.1244
G01 X12.1826 Y9.1605
G01 X12.1752 Y9.1703
G01 X12.1678 Y9.1791
G01 X12.1652 Y9.1832
G01 X12.1594 Y9.1942
G01 X12.1507 Y9.2191
G01 X12.1485 Y9.2320
G01 X12.1475 Y9.2477
G01 X12.1476 Y9.7690
G01 X12.1506 Y9.7937
G01 X12.1544 Y9.8076
G01 X12.1654 Y9.8310
G01 X12.1729 Y9.8422
G01 X12.1729 Y10.4760
G01 X11.7260 Y10.9229
G01 X11.0940 Y10.9229
G01 X10.6471 Y10.4760
G01 X10.6471 Y9.8412
G00 Z5.0000
G00 X11.7278 Y13.4629
G01 F650.00
G01 Z-0.0550
G01 F650.00
G01 X11.0940 Y13.4629
G01 X10.6471 Y13.0160
G01 X10.6471 Y12.3840
G01 X11.0940 Y11.9371
G01 X11.7288 Y11.9371
G01 X11.7370 Y11.9435
G01 X11.7477 Y11.9495
G01 X11.7525 Y11.9515
G01 X11.7618 Y11.9545
G01 X11.7706 Y11.9579
G01 X11.7774 Y11.9598
G01 X11.7856 Y11.9612
G01 X11.8036 Y11.9625
G01 X13.5923 Y11.9625
G01 X13.5974 Y11.9622
G01 X13.6073 Y11.9608
G01 X13.6172 Y11.9598
G01 X13.6220 Y11.9589
G01 X13.6314 Y11.9564
G01 X13.6381 Y11.9537
G01 X13.6463 Y11.9494
G01 X13.6548 Y11.9457
G01 X13.6589 Y11.9435
G01 X13.6693 Y11.9362
G01 X13.6815 Y11.9256
G01 X14.8022 Y10.8048
G01 X15.0733 Y10.6925
G01 X17.3664 Y10.6925
G01 X17.3715 Y10.6922
G01 X17.3814 Y10.6908
G01 X17.3913 Y10.6898
G01 X17.3961 Y10.6889
G01 X17.4054 Y10.6864
G01 X17.4119 Y10.6838
G01 X17.4203 Y10.6794
G01 X17.4310 Y10.6746
G01 X17.4422 Y10.6671
G01 X18.0760 Y10.6671
G01 X18.5229 Y11.1140
G01 X18.5229 Y11.7460
G01 X18.0760 Y12.1929
G01 X17.4412 Y12.1929
G01 X17.4330 Y12.1865
G01 X17.4223 Y12.1805
G01 X17.4175 Y12.1785
G01 X17.4082 Y12.1755
G01 X17.3994 Y12.1721
G01 X17.3926 Y12.1702
G01 X17.3844 Y12.1688
G01 X17.3664 Y12.1675
G01 X15.5777 Y12.1675
G01 X15.5726 Y12.1678
G01 X15.5504 Y12.1706
G01 X15.5386 Y12.1736
G01 X15.5341 Y12.1753
G01 X15.5237 Y12.1806
G01 X15.5131 Y12.1854
G01 X15.5007 Y12.1938
G01 X15.4885 Y12.2044
G01 X14.3678 Y13.3252
G01 X14.0967 Y13.4375
G01 X11.8036 Y13.4375
G01 X11.7985 Y13.4378
G01 X11.7886 Y13.4392
G01 X11.7787 Y13.4402
G01 X11.7739 Y13.4411
G01 X11.7646 Y13.4436
G01 X11.7581 Y13.4462
G01 X11.7497 Y13.4506
G01 X11.7390 Y13.4554
G01 X11.7278 Y13.4629
G00 X11.7278 Y13.4629
G01 F650.00
G01 Z-0.1100
G01 F650.00
G01 X11.0940 Y13.4629
G01 X10.6471 Y13.0160
G01 X10.6471 Y12.3840
G01 X11.0940 Y11.9371
G01 X11.7288 Y11.9371
G01 X11.7370 Y11.9435
G01 X11.7477 Y11.9495
G01 X11.7525 Y11.9515
G01 X11.7618 Y11.9545
G01 X11.7706 Y11.9579
G01 X11.7774 Y11.9598
G01 X11.7856 Y11.9612
G01 X11.8036 Y11.9625
G01 X13.5923 Y11.9625
G01 X13.5974 Y11.9622
G01 X13.6073 Y11.9608
G01 X13.6172 Y11.9598
G01 X13.6220 Y11.9589
G01 X13.6314 Y11.9564
G01 X13.6381 Y11.9537
G01 X13.6463 Y11.9494
G01 X13.6548 Y11.9457
G01 X13.6589 Y11.9435
G01 X13.6693 Y11.9362
G01 X13.6815 Y11.9256
G01 X14.8022 Y10.8048
G01 X15.0733 Y10.6925
G01 X17.3664 Y10.6925
G01 X17.3715 Y10.6922
G01 X17.3814 Y10.6908
G01 X17.3913 Y10.6898
G01 X17.3961 Y10.6889
G01 X17.4054 Y10.6864
G01 X17.4119 Y10.6838
G01 X17.4203 Y10.6794
G01 X17.4310 Y10.6746
G01 X17.4422 Y10.6671
G01 X18.0760 Y10.6671
G01 X18.5229 Y11.1140
G01 X18.5229 Y11.7460
G01 X18.0760 Y12.1929
G01 X17.4412 Y12.1929
G01 X17.4330 Y12.1865
G01 X17.4223 Y12.1805
G01 X17.4175 Y12.1785
G01 X17.4082 Y12.1755
G01 X17.3994 Y12.1721
G01 X17.3926 Y12.1702
G01 X17.3844 Y12.1688
G01 X17.3664 Y12.1675
G01 X15.5777 Y12.1675
G01 X15.5726 Y12.1678
G01 X15.5504 Y12.1706
G01 X15.5386 Y12.1736
G01 X15.5341 Y12.1753
G01 X15.5237 Y12.1806
G01 X15.5131 Y12.1854
G01 X15.5007 Y12.1938
G01 X15.4885 Y12.2044
G01 X14.3678 Y13.3252
G01 X14.0967 Y13.4375
G01 X11.8036 Y13.4375
G01 X11.7985 Y13.4378
G01 X11.7886 Y13.4392
G01 X11.7787 Y13.4402
G01 X11.7739 Y13.4411
G01 X11.7646 Y13.4436
G01 X11.7581 Y13.4462
G01 X11.7497 Y13.4506
G01 X11.7390 Y13.4554
G01 X11.7278 Y13.4629
G00 Z5.0000
G00 X11.0952 Y16.0041
G01 F650.00
G01 Z-0.0550
G01 F650.00
G01 X10.6471 Y15.5560
G01 X10.6471 Y14.9240
G01 X11.0940 Y14.4771
G01 X11.7260 Y14.4771
G01 X12.1749 Y14.9260
G01 X12.1760 Y14.9350
G01 X12.1790 Y14.9468
G01 X12.1817 Y14.9535
G01 X12.1860 Y14.9617
G01 X12.1897 Y14.9702
G01 X12.1931 Y14.9762
G01 X12.1992 Y14.9847
G01 X12.2098 Y14.9969
G01 X15.4885 Y18.2756
G01 X15.4926 Y18.2792
G01 X15.5003 Y18.2848
G01 X15.5091 Y18.2922
G01 X15.5132 Y18.2948
G01 X15.5242 Y18.3006
G01 X15.5358 Y18.3044
G01 X15.5468 Y18.3086
G01 X15.5514 Y18.3098
G01 X15.5620 Y18.3115
G01 X15.5777 Y18.3125
G01 X17.3664 Y18.3125
G01 X17.3715 Y18.3122
G01 X17.3814 Y18.3108
G01 X17.3913 Y18.3098
G01 X17.3961 Y18.3089
G01 X17.4054 Y18.3064
G01 X17.4119 Y18.3038
G01 X17.4203 Y18.2994
G01 X17.4310 Y18.2946
G01 X17.4422 Y18.2871
G01 X18.0760 Y18.2871
G01 X18.5229 Y18.7340
G01 X18.5229 Y19.3660
G01 X18.0760 Y19.8129
G01 X17.4412 Y19.8129
G01 X17.4330 Y19.8065
G01 X17.4223 Y19.8005
G01 X17.4175 Y19.7985
G01 X17.4082 Y19.7955
G01 X17.3994 Y19.7921
G01 X17.3926 Y19.7902
G01 X17.3844 Y19.7888
G01 X17.3664 Y19.7875
G01 X15.0733 Y19.7875
G01 X14.8022 Y19.6752
G01 X11.1669 Y16.0398
G01 X11.1628 Y16.0362
G01 X11.1551 Y16.0306
G01 X11.1463 Y16.0232
G01 X11.1336 Y16.0159
G01 X11.1288 Y16.0139
G01 X11.1196 Y16.0110
G01 X11.1086 Y16.0068
G01 X11.0952 Y16.0041
G00 X11.0952 Y16.0041
G01 F650.00
G01 Z-0.1100
G01 F650.00
G01 X10.6471 Y15.5560
G01 X10.6471 Y14.9240
G01 X11.0940 Y14.4771
G01 X11.7260 Y14.4771
G01 X12.1749 Y14.9260
G01 X12.1760 Y14.9350
G01 X12.1790 Y14.9468
G01 X12.1817 Y14.9535
G01 X12.1860 Y14.9617
G01 X12.1897 Y14.9702
G01 X12.1931 Y14.9762
G01 X12.1992 Y14.9847
G01 X12.2098 Y14.9969
G01 X15.4885 Y18.2756
G01 X15.4926 Y18.2792
G01 X15.5003 Y18.2848
G01 X15.5091 Y18.2922
G01 X15.5132 Y18.2948
G01 X15.5242 Y18.3006
G01 X15.5358 Y18.3044
G01 X15.5468 Y18.3086
G01 X15.5514 Y18.3098
G01 X15.5620 Y18.3115
G01 X15.5777 Y18.3125
G01 X17.3664 Y18.3125
G01 X17.3715 Y18.3122
G01 X17.3814 Y18.3108
G01 X17.3913 Y18.3098
G01 X17.3961 Y18.3089
G01 X17.4054 Y18.3064
G01 X17.4119 Y18.3038
G01 X17.4203 Y18.2994
G01 X17.4310 Y18.2946
G01 X17.4422 Y18.2871
G01 X18.0760 Y18.2871
G01 X18.5229 Y18.7340
G01 X18.5229 Y19.3660
G01 X18.0760 Y19.8129
G01 X17.4412 Y19.8129
G01 X17.4330 Y19.8065
G01 X17.4223 Y19.8005
G01 X17.4175 Y19.7985
G01 X17.4082 Y19.7955
G01 X17.3994 Y19.7921
G01 X17.3926 Y19.7902
G01 X17.3844 Y19.7888
G01 X17.3664 Y19.7875
G01 X15.0733 Y19.7875
G01 X14.8022 Y19.6752
G01 X11.1669 Y16.0398
G01 X11.1628 Y16.0362
G01 X11.1551 Y16.0306
G01 X11.1463 Y16.0232
G01 X11.1336 Y16.0159
G01 X11.1288 Y16.0139
G01 X11.1196 Y16.0110
G01 X11.1086 Y16.0068
G01 X11.0952 Y16.0041
G00 Z5.0000
G00 X18.4703 Y18.7740
G01 F650.00
G01 Z-0.0550
G01 F650.00
G01 X18.4704 Y19.3235
G01 X18.4694 Y19.3333
G01 X18.4666 Y19.3427
G01 X18.4620 Y19.3513
G01 X18.4558 Y19.3589
G01 X18.0689 Y19.7458
G01 X18.0653 Y19.7490
G01 X18.0593 Y19.7533
G01 X18.0527 Y19.7566
G01 X18.0457 Y19.7589
G01 X18.0384 Y19.7602
G01 X18.0335 Y19.7604
G01 X17.4840 Y19.7603
G01 X17.4791 Y19.7599
G01 X17.4719 Y19.7582
G01 X17.4651 Y19.7556
G01 X17.4607 Y19.7533
G01 X17.4529 Y19.7474
G01 X17.4407 Y19.7353
G01 X15.2200 Y19.7353
G01 X15.1876 Y19.7345
G01 X15.1528 Y19.7320
G01 X15.1194 Y19.7279
G01 X15.0863 Y19.7221
G01 X15.0535 Y19.7148
G01 X15.0211 Y19.7058
G01 X14.9891 Y19.6953
G01 X14.9577 Y19.6832
G01 X14.9259 Y19.6690
G01 X14.8969 Y19.6544
G01 X14.8677 Y19.6378
G01 X14.8393 Y19.6198
G01 X14.8128 Y19.6012
G01 X14.7843 Y19.5790
G01 X14.7598 Y19.5578
G01 X14.7358 Y19.5350
G01 X11.1512 Y15.9504
G01 X11.1340 Y15.9503
G01 X11.1243 Y15.9489
G01 X11.1196 Y15.9475
G01 X11.1129 Y15.9445
G01 X11.1087 Y15.9420
G01 X11.1029 Y15.9374
G01 X10.7126 Y15.5471
G01 X10.7067 Y15.5393
G01 X10.7025 Y15.5304
G01 X10.7001 Y15.5209
G01 X10.6996 Y15.5135
G01 X10.6996 Y14.9665
G01 X10.7006 Y14.9567
G01 X10.7025 Y14.9496
G01 X10.7044 Y14.9451
G01 X10.7094 Y14.9367
G01 X10.7142 Y14.9311
G01 X11.1011 Y14.5442
G01 X11.1087 Y14.5380
G01 X11.1173 Y14.5334
G01 X11.1267 Y14.5306
G01 X11.1365 Y14.5296
G01 X11.6835 Y14.5296
G01 X11.6909 Y14.5301
G01 X11.6981 Y14.5318
G01 X11.7071 Y14.5355
G01 X11.7133 Y14.5394
G01 X11.7189 Y14.5442
G01 X12.1074 Y14.9329
G01 X12.1106 Y14.9367
G01 X12.1145 Y14.9429
G01 X12.1175 Y14.9496
G01 X12.1189 Y14.9543
G01 X12.1203 Y14.9640
G01 X12.1204 Y14.9812
G01 X15.5039 Y18.3647
G01 X17.4407 Y18.3647
G01 X17.4529 Y18.3526
G01 X17.4607 Y18.3467
G01 X17.4651 Y18.3444
G01 X17.4719 Y18.3418
G01 X17.4791 Y18.3401
G01 X17.4840 Y18.3397
G01 X18.0335 Y18.3396
G01 X18.0409 Y18.3401
G01 X18.0504 Y18.3425
G01 X18.0571 Y18.3455
G01 X18.0633 Y18.3494
G01 X18.0689 Y18.3542
G01 X18.4558 Y18.7411
G01 X18.4606 Y18.7467
G01 X18.4656 Y18.7551
G01 X18.4689 Y18.7643
G01 X18.4703 Y18.7740
G00 X18.4703 Y18.7740
G01 F650.00
G01 Z-0.1100
G01 F650.00
G01 X18.4704 Y19.3235
G01 X18.4694 Y19.3333
G01 X18.4666 Y19.3427
G01 X18.4620 Y19.3513
G01 X18.4558 Y19.3589
G01 X18.0689 Y19.7458
G01 X18.0653 Y19.7490
G01 X18.0593 Y19.7533
G01 X18.0527 Y19.7566
G01 X18.0457 Y19.7589
G01 X18.0384 Y19.7602
G01 X18.0335 Y19.7604
G01 X17.4840 Y19.7603
G01 X17.4791 Y19.7599
G01 X17.4719 Y19.7582
G01 X17.4651 Y19.7556
G01 X17.4607 Y19.7533
G01 X17.4529 Y19.7474
G01 X17.4407 Y19.7353
G01 X15.2200 Y19.7353
G01 X15.1876 Y19.7345
G01 X15.1528 Y19.7320
G01 X15.1194 Y19.7279
G01 X15.0863 Y19.7221
G01 X15.0535 Y19.7148
G01 X15.0211 Y19.7058
G01 X14.9891 Y19.6953
G01 X14.9577 Y19.6832
G01 X14.9259 Y19.6690
G01 X14.8969 Y19.6544
G01 X14.8677 Y19.6378
G01 X14.8393 Y19.6198
G01 X14.8128 Y19.6012
G01 X14.7843 Y19.5790
G01 X14.7598 Y19.5578
G01 X14.7358 Y19.5350
G01 X11.1512 Y15.9504
G01 X11.1340 Y15.9503
G01 X11.1243 Y15.9489
G01 X11.1196 Y15.9475
G01 X11.1129 Y15.9445
G01 X11.1087 Y15.9420
G01 X11.1029 Y15.9374
G01 X10.7126 Y15.5471
G01 X10.7067 Y15.5393
G01 X10.7025 Y15.5304
G01 X10.7001 Y15.5209
G01 X10.6996 Y15.5135
G01 X10.6996 Y14.9665
G01 X10.7006 Y14.9567
G01 X10.7025 Y14.9496
G01 X10.7044 Y14.9451
G01 X10.7094 Y14.9367
G01 X10.7142 Y14.9311
G01 X11.1011 Y14.5442
G01 X11.1087 Y14.5380
G01 X11.1173 Y14.5334
G01 X11.1267 Y14.5306
G01 X11.1365 Y14.5296
G01 X11.6835 Y14.5296
G01 X11.6909 Y14.5301
G01 X11.6981 Y14.5318
G01 X11.7071 Y14.5355
G01 X11.7133 Y14.5394
G01 X11.7189 Y14.5442
G01 X12.1074 Y14.9329
G01 X12.1106 Y14.9367
G01 X12.1145 Y14.9429
G01 X12.1175 Y14.9496
G01 X12.1189 Y14.9543
G01 X12.1203 Y14.9640
G01 X12.1204 Y14.9812
G01 X15.5039 Y18.3647
G01 X17.4407 Y18.3647
G01 X17.4529 Y18.3526
G01 X17.4607 Y18.3467
G01 X17.4651 Y18.3444
G01 X17.4719 Y18.3418
G01 X17.4791 Y18.3401
G01 X17.4840 Y18.3397
G01 X18.0335 Y18.3396
G01 X18.0409 Y18.3401
G01 X18.0504 Y18.3425
G01 X18.0571 Y18.3455
G01 X18.0633 Y18.3494
G01 X18.0689 Y18.3542
G01 X18.4558 Y18.7411
G01 X18.4606 Y18.7467
G01 X18.4656 Y18.7551
G01 X18.4689 Y18.7643
G01 X18.4703 Y18.7740
G00 Z5.0000
G00 X18.4703 Y11.1540
G01 F650.00
G01 Z-0.0550
G01 F650.00
G01 X18.4704 Y11.7035
G01 X18.4694 Y11.7133
G01 X18.4666 Y11.7227
G01 X18.4620 Y11.7313
G01 X18.4558 Y11.7389
G01 X18.0689 Y12.1258
G01 X18.0633 Y12.1306
G01 X18.0571 Y12.1345
G01 X18.0527 Y12.1366
G01 X18.0457 Y12.1389
G01 X18.0384 Y12.1402
G01 X18.0335 Y12.1404
G01 X17.4840 Y12.1403
G01 X17.4791 Y12.1399
G01 X17.4719 Y12.1382
G01 X17.4673 Y12.1366
G01 X17.4607 Y12.1333
G01 X17.4529 Y12.1274
G01 X17.4407 Y12.1153
G01 X15.5039 Y12.1153
G01 X14.4346 Y13.1846
G01 X14.4102 Y13.2078
G01 X14.3838 Y13.2305
G01 X14.3582 Y13.2505
G01 X14.3318 Y13.2691
G01 X14.3023 Y13.2878
G01 X14.2731 Y13.3044
G01 X14.2419 Y13.3200
G01 X14.2123 Y13.3332
G01 X14.1820 Y13.3448
G01 X14.1489 Y13.3558
G01 X14.1153 Y13.3651
G01 X14.0825 Y13.3724
G01 X14.0506 Y13.3779
G01 X14.0184 Y13.3819
G01 X13.9836 Y13.3845
G01 X13.9506 Y13.3853
G01 X11.7293 Y13.3853
G01 X11.7171 Y13.3974
G01 X11.7093 Y13.4033
G01 X11.7027 Y13.4066
G01 X11.6981 Y13.4082
G01 X11.6909 Y13.4099
G01 X11.6860 Y13.4103
G01 X11.1316 Y13.4102
G01 X11.1219 Y13.4082
G01 X11.1151 Y13.4056
G01 X11.1087 Y13.4020
G01 X11.1011 Y13.3958
G01 X10.7142 Y13.0089
G01 X10.7110 Y13.0053
G01 X10.7067 Y12.9993
G01 X10.7034 Y12.9927
G01 X10.7011 Y12.9857
G01 X10.6998 Y12.9784
G01 X10.6996 Y12.9735
G01 X10.6996 Y12.4265
G01 X10.7006 Y12.4167
G01 X10.7034 Y12.4073
G01 X10.7080 Y12.3987
G01 X10.7142 Y12.3911
G01 X11.1011 Y12.0042
G01 X11.1067 Y11.9994
G01 X11.1129 Y11.9955
G01 X11.1196 Y11.9925
G01 X11.1243 Y11.9911
G01 X11.1316 Y11.9898
G01 X11.1365 Y11.9896
G01 X11.6860 Y11.9897
G01 X11.6909 Y11.9901
G01 X11.6981 Y11.9918
G01 X11.7027 Y11.9934
G01 X11.7093 Y11.9967
G01 X11.7171 Y12.0026
G01 X11.7293 Y12.0147
G01 X13.6661 Y12.0147
G01 X14.7354 Y10.9454
G01 X14.7598 Y10.9222
G01 X14.7862 Y10.8995
G01 X14.8118 Y10.8795
G01 X14.8382 Y10.8609
G01 X14.8677 Y10.8422
G01 X14.8969 Y10.8256
G01 X14.9281 Y10.8100
G01 X14.9577 Y10.7968
G01 X14.9880 Y10.7852
G01 X15.0211 Y10.7742
G01 X15.0547 Y10.7649
G01 X15.0863 Y10.7579
G01 X15.1182 Y10.7523
G01 X15.1516 Y10.7481
G01 X15.1864 Y10.7455
G01 X15.2194 Y10.7447
G01 X17.4407 Y10.7447
G01 X17.4529 Y10.7326
G01 X17.4607 Y10.7267
G01 X17.4673 Y10.7234
G01 X17.4719 Y10.7218
G01 X17.4791 Y10.7201
G01 X17.4840 Y10.7197
G01 X18.0384 Y10.7198
G01 X18.0481 Y10.7218
G01 X18.0549 Y10.7244
G01 X18.0613 Y10.7280
G01 X18.0689 Y10.7342
G01 X18.4558 Y11.1211
G01 X18.4606 Y11.1267
G01 X18.4656 Y11.1351
G01 X18.4689 Y11.1443
G01 X18.4703 Y11.1540
G00 X18.4703 Y11.1540
G01 F650.00
G01 Z-0.1100
G01 F650.00
G01 X18.4704 Y11.7035
G01 X18.4694 Y11.7133
G01 X18.4666 Y11.7227
G01 X18.4620 Y11.7313
G01 X18.4558 Y11.7389
G01 X18.0689 Y12.1258
G01 X18.0633 Y12.1306
G01 X18.0571 Y12.1345
G01 X18.0527 Y12.1366
G01 X18.0457 Y12.1389
G01 X18.0384 Y12.1402
G01 X18.0335 Y12.1404
G01 X17.4840 Y12.1403
G01 X17.4791 Y12.1399
G01 X17.4719 Y12.1382
G01 X17.4673 Y12.1366
G01 X17.4607 Y12.1333
G01 X17.4529 Y12.1274
G01 X17.4407 Y12.1153
G01 X15.5039 Y12.1153
G01 X14.4346 Y13.1846
G01 X14.4102 Y13.2078
G01 X14.3838 Y13.2305
G01 X14.3582 Y13.2505
G01 X14.3318 Y13.2691
G01 X14.3023 Y13.2878
G01 X14.2731 Y13.3044
G01 X14.2419 Y13.3200
G01 X14.2123 Y13.3332
G01 X14.1820 Y13.3448
G01 X14.1489 Y13.3558
G01 X14.1153 Y13.3651
G01 X14.0825 Y13.3724
G01 X14.0506 Y13.3779
G01 X14.0184 Y13.3819
G01 X13.9836 Y13.3845
G01 X13.9506 Y13.3853
G01 X11.7293 Y13.3853
G01 X11.7171 Y13.3974
G01 X11.7093 Y13.4033
G01 X11.7027 Y13.4066
G01 X11.6981 Y13.4082
G01 X11.6909 Y13.4099
G01 X11.6860 Y13.4103
G01 X11.1316 Y13.4102
G01 X11.1219 Y13.4082
G01 X11.1151 Y13.4056
G01 X11.1087 Y13.4020
G01 X11.1011 Y13.3958
G01 X10.7142 Y13.0089
G01 X10.7110 Y13.0053
G01 X10.7067 Y12.9993
G01 X10.7034 Y12.9927
G01 X10.7011 Y12.9857
G01 X10.6998 Y12.9784
G01 X10.6996 Y12.9735
G01 X10.6996 Y12.4265
G01 X10.7006 Y12.4167
G01 X10.7034 Y12.4073
G01 X10.7080 Y12.3987
G01 X10.7142 Y12.3911
G01 X11.1011 Y12.0042
G01 X11.1067 Y11.9994
G01 X11.1129 Y11.9955
G01 X11.1196 Y11.9925
G01 X11.1243 Y11.9911
G01 X11.1316 Y11.9898
G01 X11.1365 Y11.9896
G01 X11.6860 Y11.9897
G01 X11.6909 Y11.9901
G01 X11.6981 Y11.9918
G01 X11.7027 Y11.9934
G01 X11.7093 Y11.9967
G01 X11.7171 Y12.0026
G01 X11.7293 Y12.0147
G01 X13.6661 Y12.0147
G01 X14.7354 Y10.9454
G01 X14.7598 Y10.9222
G01 X14.7862 Y10.8995
G01 X14.8118 Y10.8795
G01 X14.8382 Y10.8609
G01 X14.8677 Y10.8422
G01 X14.8969 Y10.8256
G01 X14.9281 Y10.8100
G01 X14.9577 Y10.7968
G01 X14.9880 Y10.7852
G01 X15.0211 Y10.7742
G01 X15.0547 Y10.7649
G01 X15.0863 Y10.7579
G01 X15.1182 Y10.7523
G01 X15.1516 Y10.7481
G01 X15.1864 Y10.7455
G01 X15.2194 Y10.7447
G01 X17.4407 Y10.7447
G01 X17.4529 Y10.7326
G01 X17.4607 Y10.7267
G01 X17.4673 Y10.7234
G01 X17.4719 Y10.7218
G01 X17.4791 Y10.7201
G01 X17.4840 Y10.7197
G01 X18.0384 Y10.7198
G01 X18.0481 Y10.7218
G01 X18.0549 Y10.7244
G01 X18.0613 Y10.7280
G01 X18.0689 Y10.7342
G01 X18.4558 Y11.1211
G01 X18.4606 Y11.1267
G01 X18.4656 Y11.1351
G01 X18.4689 Y11.1443
G01 X18.4703 Y11.1540
G00 Z5.0000
G00 X18.4703 Y3.5340
G01 F650.00
G01 Z-0.0550
G01 F650.00
G01 X18.4704 Y4.0835
G01 X18.4699 Y4.0909
G01 X18.4675 Y4.1004
G01 X18.4633 Y4.1093
G01 X18.4590 Y4.1153
G01 X18.0671 Y4.5074
G01 X18.0633 Y4.5106
G01 X18.0571 Y4.5145
G01 X18.0527 Y4.5166
G01 X18.0457 Y4.5189
G01 X18.0360 Y4.5203
G01 X18.0188 Y4.5204
G01 X15.7046 Y6.8346
G01 X15.6802 Y6.8578
G01 X15.6548 Y6.8798
G01 X15.6292 Y6.8997
G01 X15.6007 Y6.9198
G01 X15.5723 Y6.9378
G01 X15.5441 Y6.9538
G01 X15.5119 Y6.9700
G01 X15.4823 Y6.9832
G01 X15.4520 Y6.9948
G01 X15.4178 Y7.0061
G01 X15.3865 Y7.0148
G01 X15.3537 Y7.0221
G01 X15.3206 Y7.0279
G01 X15.2884 Y7.0319
G01 X15.2536 Y7.0345
G01 X15.2200 Y7.0353
G01 X14.2339 Y7.0353
G01 X12.0953 Y9.1739
G01 X12.0953 Y9.8407
G01 X12.1074 Y9.8529
G01 X12.1133 Y9.8607
G01 X12.1166 Y9.8673
G01 X12.1182 Y9.8719
G01 X12.1199 Y9.8791
G01 X12.1203 Y9.8840
G01 X12.1204 Y10.4335
G01 X12.1202 Y10.4384
G01 X12.1189 Y10.4457
G01 X12.1166 Y10.4527
G01 X12.1133 Y10.4593
G01 X12.1090 Y10.4653
G01 X12.1058 Y10.4689
G01 X11.7171 Y10.8574
G01 X11.7093 Y10.8633
G01 X11.7004 Y10.8675
G01 X11.6909 Y10.8699
G01 X11.6835 Y10.8704
G01 X11.1365 Y10.8704
G01 X11.1267 Y10.8694
G01 X11.1173 Y10.8666
G01 X11.1087 Y10.8620
G01 X11.1011 Y10.8558
G01 X10.7126 Y10.4671
G01 X10.7067 Y10.4593
G01 X10.7025 Y10.4504
G01 X10.7001 Y10.4409
G01 X10.6996 Y10.4335
G01 X10.6996 Y9.8865
G01 X10.6998 Y9.8816
G01 X10.7011 Y9.8743
G01 X10.7025 Y9.8696
G01 X10.7055 Y9.8629
G01 X10.7080 Y9.8587
G01 X10.7126 Y9.8529
G01 X10.7247 Y9.8407
G01 X10.7247 Y8.8900
G01 X10.7255 Y8.8564
G01 X10.7281 Y8.8216
G01 X10.7321 Y8.7894
G01 X10.7376 Y8.7575
G01 X10.7452 Y8.7235
G01 X10.7542 Y8.6911
G01 X10.7647 Y8.6591
G01 X10.7773 Y8.6266
G01 X10.7905 Y8.5970
G01 X10.8050 Y8.5680
G01 X10.8222 Y8.5377
G01 X10.8409 Y8.5082
G01 X10.8595 Y8.4818
G01 X10.8795 Y8.4562
G01 X10.9022 Y8.4298
G01 X10.9254 Y8.4054
G01 X13.4654 Y5.8654
G01 X13.4898 Y5.8422
G01 X13.5152 Y5.8202
G01 X13.5408 Y5.8003
G01 X13.5693 Y5.7802
G01 X13.5977 Y5.7622
G01 X13.6259 Y5.7462
G01 X13.6581 Y5.7300
G01 X13.6877 Y5.7168
G01 X13.7180 Y5.7052
G01 X13.7522 Y5.6939
G01 X13.7835 Y5.6852
G01 X13.8163 Y5.6779
G01 X13.8494 Y5.6721
G01 X13.8816 Y5.6681
G01 X13.9164 Y5.6655
G01 X13.9500 Y5.6647
G01 X14.9361 Y5.6647
G01 X17.0496 Y3.5512
G01 X17.0497 Y3.5340
G01 X17.0511 Y3.5243
G01 X17.0534 Y3.5173
G01 X17.0555 Y3.5129
G01 X17.0580 Y3.5087
G01 X17.0626 Y3.5029
G01 X17.4511 Y3.1142
G01 X17.4587 Y3.1080
G01 X17.4651 Y3.1044
G01 X17.4743 Y3.1011
G01 X17.4791 Y3.1001
G01 X17.4865 Y3.0996
G01 X18.0335 Y3.0996
G01 X18.0433 Y3.1006
G01 X18.0527 Y3.1034
G01 X18.0613 Y3.1080
G01 X18.0689 Y3.1142
G01 X18.4558 Y3.5011
G01 X18.4606 Y3.5067
G01 X18.4656 Y3.5151
G01 X18.4689 Y3.5243
G01 X18.4703 Y3.5340
G00 X18.4703 Y3.5340
G01 F650.00
G01 Z-0.1100
G01 F650.00
G01 X18.4704 Y4.0835
G01 X18.4699 Y4.0909
G01 X18.4675 Y4.1004
G01 X18.4633 Y4.1093
G01 X18.4590 Y4.1153
G01 X18.0671 Y4.5074
G01 X18.0633 Y4.5106
G01 X18.0571 Y4.5145
G01 X18.0527 Y4.5166
G01 X18.0457 Y4.5189
G01 X18.0360 Y4.5203
G01 X18.0188 Y4.5204
G01 X15.7046 Y6.8346
G01 X15.6802 Y6.8578
G01 X15.6548 Y6.8798
G01 X15.6292 Y6.8997
G01 X15.6007 Y6.9198
G01 X15.5723 Y6.9378
G01 X15.5441 Y6.9538
G01 X15.5119 Y6.9700
G01 X15.4823 Y6.9832
G01 X15.4520 Y6.9948
G01 X15.4178 Y7.0061
G01 X15.3865 Y7.0148
G01 X15.3537 Y7.0221
G01 X15.3206 Y7.0279
G01 X15.2884 Y7.0319
G01 X15.2536 Y7.0345
G01 X15.2200 Y7.0353
G01 X14.2339 Y7.0353
G01 X12.0953 Y9.1739
G01 X12.0953 Y9.8407
G01 X12.1074 Y9.8529
G01 X12.1133 Y9.8607
G01 X12.1166 Y9.8673
G01 X12.1182 Y9.8719
G01 X12.1199 Y9.8791
G01 X12.1203 Y9.8840
G01 X12.1204 Y10.4335
G01 X12.1202 Y10.4384
G01 X12.1189 Y10.4457
G01 X12.1166 Y10.4527
G01 X12.1133 Y10.4593
G01 X12.1090 Y10.4653
G01 X12.1058 Y10.4689
G01 X11.7171 Y10.8574
G01 X11.7093 Y10.8633
G01 X11.7004 Y10.8675
G01 X11.6909 Y10.8699
G01 X11.6835 Y10.8704
G01 X11.1365 Y10.8704
G01 X11.1267 Y10.8694
G01 X11.1173 Y10.8666
G01 X11.1087 Y10.8620
G01 X11.1011 Y10.8558
G01 X10.7126 Y10.4671
G01 X10.7067 Y10.4593
G01 X10.7025 Y10.4504
G01 X10.7001 Y10.4409
G01 X10.6996 Y10.4335
G01 X10.6996 Y9.8865
G01 X10.6998 Y9.8816
G01 X10.7011 Y9.8743
G01 X10.7025 Y9.8696
G01 X10.7055 Y9.8629
G01 X10.7080 Y9.8587
G01 X10.7126 Y9.8529
G01 X10.7247 Y9.8407
G01 X10.7247 Y8.8900
G01 X10.7255 Y8.8564
G01 X10.7281 Y8.8216
G01 X10.7321 Y8.7894
G01 X10.7376 Y8.7575
G01 X10.7452 Y8.7235
G01 X10.7542 Y8.6911
G01 X10.7647 Y8.6591
G01 X10.7773 Y8.6266
G01 X10.7905 Y8.5970
G01 X10.8050 Y8.5680
G01 X10.8222 Y8.5377
G01 X10.8409 Y8.5082
G01 X10.8595 Y8.4818
G01 X10.8795 Y8.4562
G01 X10.9022 Y8.4298
G01 X10.9254 Y8.4054
G01 X13.4654 Y5.8654
G01 X13.4898 Y5.8422
G01 X13.5152 Y5.8202
G01 X13.5408 Y5.8003
G01 X13.5693 Y5.7802
G01 X13.5977 Y5.7622
G01 X13.6259 Y5.7462
G01 X13.6581 Y5.7300
G01 X13.6877 Y5.7168
G01 X13.7180 Y5.7052
G01 X13.7522 Y5.6939
G01 X13.7835 Y5.6852
G01 X13.8163 Y5.6779
G01 X13.8494 Y5.6721
G01 X13.8816 Y5.6681
G01 X13.9164 Y5.6655
G01 X13.9500 Y5.6647
G01 X14.9361 Y5.6647
G01 X17.0496 Y3.5512
G01 X17.0497 Y3.5340
G01 X17.0511 Y3.5243
G01 X17.0534 Y3.5173
G01 X17.0555 Y3.5129
G01 X17.0580 Y3.5087
G01 X17.0626 Y3.5029
G01 X17.4511 Y3.1142
G01 X17.4587 Y3.1080
G01 X17.4651 Y3.1044
G01 X17.4743 Y3.1011
G01 X17.4791 Y3.1001
G01 X17.4865 Y3.0996
G01 X18.0335 Y3.0996
G01 X18.0433 Y3.1006
G01 X18.0527 Y3.1034
G01 X18.0613 Y3.1080
G01 X18.0689 Y3.1142
G01 X18.4558 Y3.5011
G01 X18.4606 Y3.5067
G01 X18.4656 Y3.5151
G01 X18.4689 Y3.5243
G01 X18.4703 Y3.5340
G00 Z5.0000
G00 X30.4074 Y16.2657
G01 F650.00
G01 Z-0.0550
G01 F650.00
G01 X24.5981 Y22.0750
G01 X24.5741 Y22.0978
G01 X24.5496 Y22.1190
G01 X24.5221 Y22.1405
G01 X24.4936 Y22.1605
G01 X24.4662 Y22.1778
G01 X24.4380 Y22.1938
G01 X24.4069 Y22.2095
G01 X24.3750 Y22.2236
G01 X24.3448 Y22.2353
G01 X24.3140 Y22.2454
G01 X24.2804 Y22.2548
G01 X24.2476 Y22.2621
G01 X24.2132 Y22.2681
G01 X24.1811 Y22.2720
G01 X24.1488 Y22.2744
G01 X24.1139 Y22.2753
G01 X7.6000 Y22.2753
G01 X7.5664 Y22.2745
G01 X7.5316 Y22.2719
G01 X7.4994 Y22.2679
G01 X7.4675 Y22.2624
G01 X7.4347 Y22.2551
G01 X7.4011 Y22.2458
G01 X7.3680 Y22.2348
G01 X7.3377 Y22.2232
G01 X7.3081 Y22.2100
G01 X7.2759 Y22.1938
G01 X7.2477 Y22.1778
G01 X7.2203 Y22.1605
G01 X7.1918 Y22.1405
G01 X7.1652 Y22.1198
G01 X7.1407 Y22.0986
G01 X7.1154 Y22.0746
G01 X3.3050 Y18.2642
G01 X3.2822 Y18.2402
G01 X3.2595 Y18.2138
G01 X3.2388 Y18.1872
G01 X3.2202 Y18.1607
G01 X3.2028 Y18.1334
G01 X3.1856 Y18.1031
G01 X3.1705 Y18.0730
G01 X3.1568 Y18.0423
G01 X3.1447 Y18.0109
G01 X3.1342 Y17.9789
G01 X3.1255 Y17.9477
G01 X3.1179 Y17.9137
G01 X3.1121 Y17.8806
G01 X3.1081 Y17.8484
G01 X3.1055 Y17.8124
G01 X3.1047 Y17.7800
G01 X3.1047 Y15.5593
G01 X3.0926 Y15.5471
G01 X3.0894 Y15.5433
G01 X3.0855 Y15.5371
G01 X3.0834 Y15.5327
G01 X3.0811 Y15.5257
G01 X3.0798 Y15.5184
G01 X3.0796 Y15.5135
G01 X3.0797 Y14.9640
G01 X3.0801 Y14.9591
G01 X3.0818 Y14.9519
G01 X3.0844 Y14.9451
G01 X3.0867 Y14.9407
G01 X3.0926 Y14.9329
G01 X3.1047 Y14.9207
G01 X3.1047 Y13.0193
G01 X3.0926 Y13.0071
G01 X3.0867 Y12.9993
G01 X3.0844 Y12.9949
G01 X3.0818 Y12.9881
G01 X3.0806 Y12.9833
G01 X3.0797 Y12.9760
G01 X3.0796 Y12.4265
G01 X3.0798 Y12.4216
G01 X3.0811 Y12.4143
G01 X3.0834 Y12.4073
G01 X3.0855 Y12.4029
G01 X3.0894 Y12.3967
G01 X3.0926 Y12.3929
G01 X3.1047 Y12.3807
G01 X3.1047 Y10.4793
G01 X3.0926 Y10.4671
G01 X3.0867 Y10.4593
G01 X3.0844 Y10.4549
G01 X3.0818 Y10.4481
G01 X3.0806 Y10.4433
G01 X3.0797 Y10.4360
G01 X3.0796 Y9.8865
G01 X3.0798 Y9.8816
G01 X3.0811 Y9.8743
G01 X3.0834 Y9.8673
G01 X3.0867 Y9.8607
G01 X3.0910 Y9.8547
G01 X3.0942 Y9.8511
G01 X3.4811 Y9.4642
G01 X3.4887 Y9.4580
G01 X3.4973 Y9.4534
G01 X3.5067 Y9.4506
G01 X3.5165 Y9.4496
G01 X4.0635 Y9.4496
G01 X4.0733 Y9.4506
G01 X4.0827 Y9.4534
G01 X4.0913 Y9.4580
G01 X4.0989 Y9.4642
G01 X4.4858 Y9.8511
G01 X4.4906 Y9.8567
G01 X4.4945 Y9.8629
G01 X4.4975 Y9.8696
G01 X4.4994 Y9.8767
G01 X4.5004 Y9.8865
G01 X4.5003 Y10.4360
G01 X4.4999 Y10.4409
G01 X4.4982 Y10.4481
G01 X4.4966 Y10.4527
G01 X4.4933 Y10.4593
G01 X4.4874 Y10.4671
G01 X4.4753 Y10.4793
G01 X4.4753 Y12.3807
G01 X4.4874 Y12.3929
G01 X4.4933 Y12.4007
G01 X4.4966 Y12.4073
G01 X4.4982 Y12.4119
G01 X4.4999 Y12.4191
G01 X4.5003 Y12.4240
G01 X4.5004 Y12.9735
G01 X4.5002 Y12.9784
G01 X4.4989 Y12.9857
G01 X4.4975 Y12.9904
G01 X4.4945 Y12.9971
G01 X4.4906 Y13.0033
G01 X4.4874 Y13.0071
G01 X4.4753 Y13.0193
G01 X4.4753 Y14.9207
G01 X4.4874 Y14.9329
G01 X4.4933 Y14.9407
G01 X4.4966 Y14.9473
G01 X4.4982 Y14.9519
G01 X4.4999 Y14.9591
G01 X4.5003 Y14.9640
G01 X4.5004 Y15.5135
G01 X4.5002 Y15.5184
G01 X4.4989 Y15.5257
G01 X4.4975 Y15.5304
G01 X4.4945 Y15.5371
G01 X4.4906 Y15.5433
G01 X4.4874 Y15.5471
G01 X4.4753 Y15.5593
G01 X4.4753 Y17.4961
G01 X7.8839 Y20.9047
G01 X23.8300 Y20.9047
G01 X29.4382 Y15.2965
G01 X29.4363 Y15.2704
G01 X29.4350 Y15.2195
G01 X29.4362 Y15.1686
G01 X29.4401 Y15.1160
G01 X29.4462 Y15.0660
G01 X29.4552 Y15.0141
G01 X29.4665 Y14.9638
G01 X29.4802 Y14.9141
G01 X29.4964 Y14.8652
G01 X29.5149 Y14.8171
G01 X29.5358 Y14.7700
G01 X29.5590 Y14.7239
G01 X29.5850 Y14.6780
G01 X29.6127 Y14.6345
G01 X29.6416 Y14.5934
G01 X29.6726 Y14.5537
G01 X29.7070 Y14.5138
G01 X29.7425 Y14.4764
G01 X29.7799 Y14.4409
G01 X29.8198 Y14.4065
G01 X29.8595 Y14.3755
G01 X29.9006 Y14.3466
G01 X29.9441 Y14.3189
G01 X29.9900 Y14.2929
G01 X30.0361 Y14.2697
G01 X30.0832 Y14.2488
G01 X30.1313 Y14.2303
G01 X30.1802 Y14.2141
G01 X30.2299 Y14.2004
G01 X30.2802 Y14.1891
G01 X30.3321 Y14.1801
G01 X30.3833 Y14.1739
G01 X30.4335 Y14.1702
G01 X30.4838 Y14.1689
G01 X30.5365 Y14.1702
G01 X30.5867 Y14.1739
G01 X30.6391 Y14.1803
G01 X30.6898 Y14.1891
G01 X30.7401 Y14.2004
G01 X30.7898 Y14.2141
G01 X30.8387 Y14.2303
G01 X30.8868 Y14.2488
G01 X30.9339 Y14.2697
G01 X30.9800 Y14.2929
G01 X31.0248 Y14.3183
G01 X31.0683 Y14.3459
G01 X31.1105 Y14.3755
G01 X31.1511 Y14.4072
G01 X31.1901 Y14.4409
G01 X31.2275 Y14.4764
G01 X31.2630 Y14.5138
G01 X31.2967 Y14.5528
G01 X31.3284 Y14.5934
G01 X31.3580 Y14.6356
G01 X31.3856 Y14.6791
G01 X31.4110 Y14.7239
G01 X31.4342 Y14.7700
G01 X31.4551 Y14.8171
G01 X31.4736 Y14.8652
G01 X31.4898 Y14.9141
G01 X31.5035 Y14.9638
G01 X31.5148 Y15.0141
G01 X31.5236 Y15.0648
G01 X31.5299 Y15.1160
G01 X31.5337 Y15.1674
G01 X31.5350 Y15.2189
G01 X31.5337 Y15.2704
G01 X31.5300 Y15.3206
G01 X31.5236 Y15.3730
G01 X31.5148 Y15.4237
G01 X31.5035 Y15.4740
G01 X31.4898 Y15.5237
G01 X31.4736 Y15.5726
G01 X31.4551 Y15.6207
G01 X31.4342 Y15.6678
G01 X31.4110 Y15.7139
G01 X31.3856 Y15.7587
G01 X31.3580 Y15.8022
G01 X31.3284 Y15.8444
G01 X31.2967 Y15.8850
G01 X31.2630 Y15.9240
G01 X31.2275 Y15.9614
G01 X31.1901 Y15.9969
G01 X31.1521 Y16.0298
G01 X31.1105 Y16.0623
G01 X31.0683 Y16.0919
G01 X31.0248 Y16.1195
G01 X30.9800 Y16.1449
G01 X30.9339 Y16.1681
G01 X30.8868 Y16.1890
G01 X30.8387 Y16.2075
G01 X30.7910 Y16.2233
G01 X30.7401 Y16.2374
G01 X30.6898 Y16.2487
G01 X30.6391 Y16.2575
G01 X30.5879 Y16.2638
G01 X30.5365 Y16.2676
G01 X30.4850 Y16.2689
G01 X30.4335 Y16.2676
G01 X30.4074 Y16.2657
G00 X30.4074 Y16.2657
G01 F650.00
G01 Z-0.1100
G01 F650.00
G01 X24.5981 Y22.0750
G01 X24.5741 Y22.0978
G01 X24.5496 Y22.1190
G01 X24.5221 Y22.1405
G01 X24.4936 Y22.1605
G01 X24.4662 Y22.1778
G01 X24.4380 Y22.1938
G01 X24.4069 Y22.2095
G01 X24.3750 Y22.2236
G01 X24.3448 Y22.2353
G01 X24.3140 Y22.2454
G01 X24.2804 Y22.2548
G01 X24.2476 Y22.2621
G01 X24.2132 Y22.2681
G01 X24.1811 Y22.2720
G01 X24.1488 Y22.2744
G01 X24.1139 Y22.2753
G01 X7.6000 Y22.2753
G01 X7.5664 Y22.2745
G01 X7.5316 Y22.2719
G01 X7.4994 Y22.2679
G01 X7.4675 Y22.2624
G01 X7.4347 Y22.2551
G01 X7.4011 Y22.2458
G01 X7.3680 Y22.2348
G01 X7.3377 Y22.2232
G01 X7.3081 Y22.2100
G01 X7.2759 Y22.1938
G01 X7.2477 Y22.1778
G01 X7.2203 Y22.1605
G01 X7.1918 Y22.1405
G01 X7.1652 Y22.1198
G01 X7.1407 Y22.0986
G01 X7.1154 Y22.0746
G01 X3.3050 Y18.2642
G01 X3.2822 Y18.2402
G01 X3.2595 Y18.2138
G01 X3.2388 Y18.1872
G01 X3.2202 Y18.1607
G01 X3.2028 Y18.1334
G01 X3.1856 Y18.1031
G01 X3.1705 Y18.0730
G01 X3.1568 Y18.0423
G01 X3.1447 Y18.0109
G01 X3.1342 Y17.9789
G01 X3.1255 Y17.9477
G01 X3.1179 Y17.9137
G01 X3.1121 Y17.8806
G01 X3.1081 Y17.8484
G01 X3.1055 Y17.8124
G01 X3.1047 Y17.7800
G01 X3.1047 Y15.5593
G01 X3.0926 Y15.5471
G01 X3.0894 Y15.5433
G01 X3.0855 Y15.5371
G01 X3.0834 Y15.5327
G01 X3.0811 Y15.5257
G01 X3.0798 Y15.5184
G01 X3.0796 Y15.5135
G01 X3.0797 Y14.9640
G01 X3.0801 Y14.9591
G01 X3.0818 Y14.9519
G01 X3.0844 Y14.9451
G01 X3.0867 Y14.9407
G01 X3.0926 Y14.9329
G01 X3.1047 Y14.9207
G01 X3.1047 Y13.0193
G01 X3.0926 Y13.0071
G01 X3.0867 Y12.9993
G01 X3.0844 Y12.9949
G01 X3.0818 Y12.9881
G01 X3.0806 Y12.9833
G01 X3.0797 Y12.9760
G01 X3.0796 Y12.4265
G01 X3.0798 Y12.4216
G01 X3.0811 Y12.4143
G01 X3.0834 Y12.4073
G01 X3.0855 Y12.4029
G01 X3.0894 Y12.3967
G01 X3.0926 Y12.3929
G01 X3.1047 Y12.3807
G01 X3.1047 Y10.4793
G01 X3.0926 Y10.4671
G01 X3.0867 Y10.4593
G01 X3.0844 Y10.4549
G01 X3.0818 Y10.4481
G01 X3.0806 Y10.4433
G01 X3.0797 Y10.4360
G01 X3.0796 Y9.8865
G01 X3.0798 Y9.8816
G01 X3.0811 Y9.8743
G01 X3.0834 Y9.8673
G01 X3.0867 Y9.8607
G01 X3.0910 Y9.8547
G01 X3.0942 Y9.8511
G01 X3.4811 Y9.4642
G01 X3.4887 Y9.4580
G01 X3.4973 Y9.4534
G01 X3.5067 Y9.4506
G01 X3.5165 Y9.4496
G01 X4.0635 Y9.4496
G01 X4.0733 Y9.4506
G01 X4.0827 Y9.4534
G01 X4.0913 Y9.4580
G01 X4.0989 Y9.4642
G01 X4.4858 Y9.8511
G01 X4.4906 Y9.8567
G01 X4.4945 Y9.8629
G01 X4.4975 Y9.8696
G01 X4.4994 Y9.8767
G01 X4.5004 Y9.8865
G01 X4.5003 Y10.4360
G01 X4.4999 Y10.4409
G01 X4.4982 Y10.4481
G01 X4.4966 Y10.4527
G01 X4.4933 Y10.4593
G01 X4.4874 Y10.4671
G01 X4.4753 Y10.4793
G01 X4.4753 Y12.3807
G01 X4.4874 Y12.3929
G01 X4.4933 Y12.4007
G01 X4.4966 Y12.4073
G01 X4.4982 Y12.4119
G01 X4.4999 Y12.4191
G01 X4.5003 Y12.4240
G01 X4.5004 Y12.9735
G01 X4.5002 Y12.9784
G01 X4.4989 Y12.9857
G01 X4.4975 Y12.9904
G01 X4.4945 Y12.9971
G01 X4.4906 Y13.0033
G01 X4.4874 Y13.0071
G01 X4.4753 Y13.0193
G01 X4.4753 Y14.9207
G01 X4.4874 Y14.9329
G01 X4.4933 Y14.9407
G01 X4.4966 Y14.9473
G01 X4.4982 Y14.9519
G01 X4.4999 Y14.9591
G01 X4.5003 Y14.9640
G01 X4.5004 Y15.5135
G01 X4.5002 Y15.5184
G01 X4.4989 Y15.5257
G01 X4.4975 Y15.5304
G01 X4.4945 Y15.5371
G01 X4.4906 Y15.5433
G01 X4.4874 Y15.5471
G01 X4.4753 Y15.5593
G01 X4.4753 Y17.4961
G01 X7.8839 Y20.9047
G01 X23.8300 Y20.9047
G01 X29.4382 Y15.2965
G01 X29.4363 Y15.2704
G01 X29.4350 Y15.2195
G01 X29.4362 Y15.1686
G01 X29.4401 Y15.1160
G01 X29.4462 Y15.0660
G01 X29.4552 Y15.0141
G01 X29.4665 Y14.9638
G01 X29.4802 Y14.9141
G01 X29.4964 Y14.8652
G01 X29.5149 Y14.8171
G01 X29.5358 Y14.7700
G01 X29.5590 Y14.7239
G01 X29.5850 Y14.6780
G01 X29.6127 Y14.6345
G01 X29.6416 Y14.5934
G01 X29.6726 Y14.5537
G01 X29.7070 Y14.5138
G01 X29.7425 Y14.4764
G01 X29.7799 Y14.4409
G01 X29.8198 Y14.4065
G01 X29.8595 Y14.3755
G01 X29.9006 Y14.3466
G01 X29.9441 Y14.3189
G01 X29.9900 Y14.2929
G01 X30.0361 Y14.2697
G01 X30.0832 Y14.2488
G01 X30.1313 Y14.2303
G01 X30.1802 Y14.2141
G01 X30.2299 Y14.2004
G01 X30.2802 Y14.1891
G01 X30.3321 Y14.1801
G01 X30.3833 Y14.1739
G01 X30.4335 Y14.1702
G01 X30.4838 Y14.1689
G01 X30.5365 Y14.1702
G01 X30.5867 Y14.1739
G01 X30.6391 Y14.1803
G01 X30.6898 Y14.1891
G01 X30.7401 Y14.2004
G01 X30.7898 Y14.2141
G01 X30.8387 Y14.2303
G01 X30.8868 Y14.2488
G01 X30.9339 Y14.2697
G01 X30.9800 Y14.2929
G01 X31.0248 Y14.3183
G01 X31.0683 Y14.3459
G01 X31.1105 Y14.3755
G01 X31.1511 Y14.4072
G01 X31.1901 Y14.4409
G01 X31.2275 Y14.4764
G01 X31.2630 Y14.5138
G01 X31.2967 Y14.5528
G01 X31.3284 Y14.5934
G01 X31.3580 Y14.6356
G01 X31.3856 Y14.6791
G01 X31.4110 Y14.7239
G01 X31.4342 Y14.7700
G01 X31.4551 Y14.8171
G01 X31.4736 Y14.8652
G01 X31.4898 Y14.9141
G01 X31.5035 Y14.9638
G01 X31.5148 Y15.0141
G01 X31.5236 Y15.0648
G01 X31.5299 Y15.1160
G01 X31.5337 Y15.1674
G01 X31.5350 Y15.2189
G01 X31.5337 Y15.2704
G01 X31.5300 Y15.3206
G01 X31.5236 Y15.3730
G01 X31.5148 Y15.4237
G01 X31.5035 Y15.4740
G01 X31.4898 Y15.5237
G01 X31.4736 Y15.5726
G01 X31.4551 Y15.6207
G01 X31.4342 Y15.6678
G01 X31.4110 Y15.7139
G01 X31.3856 Y15.7587
G01 X31.3580 Y15.8022
G01 X31.3284 Y15.8444
G01 X31.2967 Y15.8850
G01 X31.2630 Y15.9240
G01 X31.2275 Y15.9614
G01 X31.1901 Y15.9969
G01 X31.1521 Y16.0298
G01 X31.1105 Y16.0623
G01 X31.0683 Y16.0919
G01 X31.0248 Y16.1195
G01 X30.9800 Y16.1449
G01 X30.9339 Y16.1681
G01 X30.8868 Y16.1890
G01 X30.8387 Y16.2075
G01 X30.7910 Y16.2233
G01 X30.7401 Y16.2374
G01 X30.6898 Y16.2487
G01 X30.6391 Y16.2575
G01 X30.5879 Y16.2638
G01 X30.5365 Y16.2676
G01 X30.4850 Y16.2689
G01 X30.4335 Y16.2676
G01 X30.4074 Y16.2657
G00 Z5.0000
G00 X3.0271 Y15.5578
G01 F650.00
G01 Z-0.0550
G01 F650.00
G01 X3.0271 Y14.9212
G01 X3.0335 Y14.9130
G01 X3.0395 Y14.9023
G01 X3.0415 Y14.8975
G01 X3.0445 Y14.8882
G01 X3.0479 Y14.8794
G01 X3.0498 Y14.8726
G01 X3.0512 Y14.8644
G01 X3.0525 Y14.8464
G01 X3.0525 Y13.0936
G01 X3.0522 Y13.0885
G01 X3.0508 Y13.0786
G01 X3.0498 Y13.0687
G01 X3.0489 Y13.0639
G01 X3.0464 Y13.0546
G01 X3.0438 Y13.0481
G01 X3.0394 Y13.0397
G01 X3.0346 Y13.0290
G01 X3.0271 Y13.0178
G01 X3.0271 Y12.3812
G01 X3.0335 Y12.3730
G01 X3.0395 Y12.3623
G01 X3.0415 Y12.3575
G01 X3.0445 Y12.3482
G01 X3.0479 Y12.3394
G01 X3.0498 Y12.3326
G01 X3.0512 Y12.3244
G01 X3.0525 Y12.3064
G01 X3.0525 Y10.5536
G01 X3.0522 Y10.5485
G01 X3.0508 Y10.5386
G01 X3.0498 Y10.5287
G01 X3.0489 Y10.5239
G01 X3.0464 Y10.5146
G01 X3.0438 Y10.5081
G01 X3.0394 Y10.4997
G01 X3.0346 Y10.4890
G01 X3.0271 Y10.4778
G01 X3.0271 Y9.8440
G01 X3.4740 Y9.3971
G01 X4.1060 Y9.3971
G01 X4.5529 Y9.8440
G01 X4.5529 Y10.4788
G01 X4.5465 Y10.4870
G01 X4.5405 Y10.4977
G01 X4.5385 Y10.5025
G01 X4.5355 Y10.5118
G01 X4.5321 Y10.5206
G01 X4.5302 Y10.5274
G01 X4.5288 Y10.5356
G01 X4.5275 Y10.5536
G01 X4.5275 Y12.3064
G01 X4.5278 Y12.3115
G01 X4.5292 Y12.3214
G01 X4.5302 Y12.3313
G01 X4.5311 Y12.3361
G01 X4.5336 Y12.3454
G01 X4.5362 Y12.3519
G01 X4.5406 Y12.3603
G01 X4.5454 Y12.3710
G01 X4.5529 Y12.3822
G01 X4.5529 Y13.0188
G01 X4.5465 Y13.0270
G01 X4.5405 Y13.0377
G01 X4.5385 Y13.0425
G01 X4.5355 Y13.0518
G01 X4.5321 Y13.0606
G01 X4.5302 Y13.0674
G01 X4.5288 Y13.0756
G01 X4.5275 Y13.0936
G01 X4.5275 Y14.8464
G01 X4.5278 Y14.8515
G01 X4.5292 Y14.8614
G01 X4.5302 Y14.8713
G01 X4.5311 Y14.8761
G01 X4.5336 Y14.8854
G01 X4.5362 Y14.8919
G01 X4.5406 Y14.9003
G01 X4.5454 Y14.9110
G01 X4.5529 Y14.9222
G01 X4.5529 Y15.5584
G01 X4.5464 Y15.5671
G01 X4.5405 Y15.5777
G01 X4.5385 Y15.5825
G01 X4.5355 Y15.5918
G01 X4.5321 Y15.6006
G01 X4.5302 Y15.6074
G01 X4.5288 Y15.6156
G01 X4.5275 Y15.6336
G01 X4.5275 Y17.4223
G01 X4.5278 Y17.4274
G01 X4.5306 Y17.4496
G01 X4.5344 Y17.4637
G01 X4.5465 Y17.4889
G01 X4.5538 Y17.4993
G01 X4.5644 Y17.5115
G01 X7.8685 Y20.8156
G01 X7.8726 Y20.8192
G01 X7.8803 Y20.8248
G01 X7.8891 Y20.8322
G01 X7.8995 Y20.8383
G01 X7.9066 Y20.8415
G01 X7.9158 Y20.8444
G01 X7.9245 Y20.8479
G01 X7.9314 Y20.8498
G01 X7.9420 Y20.8515
G01 X7.9577 Y20.8525
G01 X23.7562 Y20.8525
G01 X23.7613 Y20.8522
G01 X23.7712 Y20.8508
G01 X23.7811 Y20.8498
G01 X23.7859 Y20.8489
G01 X23.7953 Y20.8464
G01 X23.7998 Y20.8447
G01 X23.8102 Y20.8394
G01 X23.8208 Y20.8346
G01 X23.8332 Y20.8262
G01 X23.8454 Y20.8156
G01 X29.3474 Y15.3134
G01 X29.3548 Y15.3036
G01 X29.3622 Y15.2948
G01 X29.3695 Y15.2821
G01 X29.3715 Y15.2773
G01 X29.3744 Y15.2681
G01 X29.3786 Y15.2571
G01 X29.3798 Y15.2525
G01 X29.3815 Y15.2419
G01 X29.3825 Y15.2262
G01 X29.3825 Y14.9996
G01 X29.5504 Y14.5944
G01 X29.8605 Y14.2843
G01 X30.2657 Y14.1164
G01 X30.7043 Y14.1164
G01 X31.1095 Y14.2843
G01 X31.4196 Y14.5944
G01 X31.5875 Y14.9996
G01 X31.5875 Y15.4382
G01 X31.4196 Y15.8434
G01 X31.1095 Y16.1535
G01 X30.7043 Y16.3214
G01 X30.4777 Y16.3214
G01 X30.4726 Y16.3217
G01 X30.4504 Y16.3245
G01 X30.4386 Y16.3275
G01 X30.4341 Y16.3292
G01 X30.4111 Y16.3404
G01 X30.4007 Y16.3477
G01 X30.3905 Y16.3565
G01 X24.5317 Y22.2152
G01 X24.2606 Y22.3275
G01 X7.4533 Y22.3275
G01 X7.1822 Y22.2152
G01 X3.1648 Y18.1978
G01 X3.0525 Y17.9267
G01 X3.0525 Y15.6336
G01 X3.0522 Y15.6285
G01 X3.0508 Y15.6186
G01 X3.0498 Y15.6087
G01 X3.0489 Y15.6039
G01 X3.0464 Y15.5946
G01 X3.0438 Y15.5881
G01 X3.0394 Y15.5797
G01 X3.0346 Y15.5690
G01 X3.0271 Y15.5578
G00 X3.0271 Y15.5578
G01 F650.00
G01 Z-0.1100
G01 F650.00
G01 X3.0271 Y14.9212
G01 X3.0335 Y14.9130
G01 X3.0395 Y14.9023
G01 X3.0415 Y14.8975
G01 X3.0445 Y14.8882
G01 X3.0479 Y14.8794
G01 X3.0498 Y14.8726
G01 X3.0512 Y14.8644
G01 X3.0525 Y14.8464
G01 X3.0525 Y13.0936
G01 X3.0522 Y13.0885
G01 X3.0508 Y13.0786
G01 X3.0498 Y13.0687
G01 X3.0489 Y13.0639
G01 X3.0464 Y13.0546
G01 X3.0438 Y13.0481
G01 X3.0394 Y13.0397
G01 X3.0346 Y13.0290
G01 X3.0271 Y13.0178
G01 X3.0271 Y12.3812
G01 X3.0335 Y12.3730
G01 X3.0395 Y12.3623
G01 X3.0415 Y12.3575
G01 X3.0445 Y12.3482
G01 X3.0479 Y12.3394
G01 X3.0498 Y12.3326
G01 X3.0512 Y12.3244
G01 X3.0525 Y12.3064
G01 X3.0525 Y10.5536
G01 X3.0522 Y10.5485
G01 X3.0508 Y10.5386
G01 X3.0498 Y10.5287
G01 X3.0489 Y10.5239
G01 X3.0464 Y10.5146
G01 X3.0438 Y10.5081
G01 X3.0394 Y10.4997
G01 X3.0346 Y10.4890
G01 X3.0271 Y10.4778
G01 X3.0271 Y9.8440
G01 X3.4740 Y9.3971
G01 X4.1060 Y9.3971
G01 X4.5529 Y9.8440
G01 X4.5529 Y10.4788
G01 X4.5465 Y10.4870
G01 X4.5405 Y10.4977
G01 X4.5385 Y10.5025
G01 X4.5355 Y10.5118
G01 X4.5321 Y10.5206
G01 X4.5302 Y10.5274
G01 X4.5288 Y10.5356
G01 X4.5275 Y10.5536
G01 X4.5275 Y12.3064
G01 X4.5278 Y12.3115
G01 X4.5292 Y12.3214
G01 X4.5302 Y12.3313
G01 X4.5311 Y12.3361
G01 X4.5336 Y12.3454
G01 X4.5362 Y12.3519
G01 X4.5406 Y12.3603
G01 X4.5454 Y12.3710
G01 X4.5529 Y12.3822
G01 X4.5529 Y13.0188
G01 X4.5465 Y13.0270
G01 X4.5405 Y13.0377
G01 X4.5385 Y13.0425
G01 X4.5355 Y13.0518
G01 X4.5321 Y13.0606
G01 X4.5302 Y13.0674
G01 X4.5288 Y13.0756
G01 X4.5275 Y13.0936
G01 X4.5275 Y14.8464
G01 X4.5278 Y14.8515
G01 X4.5292 Y14.8614
G01 X4.5302 Y14.8713
G01 X4.5311 Y14.8761
G01 X4.5336 Y14.8854
G01 X4.5362 Y14.8919
G01 X4.5406 Y14.9003
G01 X4.5454 Y14.9110
G01 X4.5529 Y14.9222
G01 X4.5529 Y15.5584
G01 X4.5464 Y15.5671
G01 X4.5405 Y15.5777
G01 X4.5385 Y15.5825
G01 X4.5355 Y15.5918
G01 X4.5321 Y15.6006
G01 X4.5302 Y15.6074
G01 X4.5288 Y15.6156
G01 X4.5275 Y15.6336
G01 X4.5275 Y17.4223
G01 X4.5278 Y17.4274
G01 X4.5306 Y17.4496
G01 X4.5344 Y17.4637
G01 X4.5465 Y17.4889
G01 X4.5538 Y17.4993
G01 X4.5644 Y17.5115
G01 X7.8685 Y20.8156
G01 X7.8726 Y20.8192
G01 X7.8803 Y20.8248
G01 X7.8891 Y20.8322
G01 X7.8995 Y20.8383
G01 X7.9066 Y20.8415
G01 X7.9158 Y20.8444
G01 X7.9245 Y20.8479
G01 X7.9314 Y20.8498
G01 X7.9420 Y20.8515
G01 X7.9577 Y20.8525
G01 X23.7562 Y20.8525
G01 X23.7613 Y20.8522
G01 X23.7712 Y20.8508
G01 X23.7811 Y20.8498
G01 X23.7859 Y20.8489
G01 X23.7953 Y20.8464
G01 X23.7998 Y20.8447
G01 X23.8102 Y20.8394
G01 X23.8208 Y20.8346
G01 X23.8332 Y20.8262
G01 X23.8454 Y20.8156
G01 X29.3474 Y15.3134
G01 X29.3548 Y15.3036
G01 X29.3622 Y15.2948
G01 X29.3695 Y15.2821
G01 X29.3715 Y15.2773
G01 X29.3744 Y15.2681
G01 X29.3786 Y15.2571
G01 X29.3798 Y15.2525
G01 X29.3815 Y15.2419
G01 X29.3825 Y15.2262
G01 X29.3825 Y14.9996
G01 X29.5504 Y14.5944
G01 X29.8605 Y14.2843
G01 X30.2657 Y14.1164
G01 X30.7043 Y14.1164
G01 X31.1095 Y14.2843
G01 X31.4196 Y14.5944
G01 X31.5875 Y14.9996
G01 X31.5875 Y15.4382
G01 X31.4196 Y15.8434
G01 X31.1095 Y16.1535
G01 X30.7043 Y16.3214
G01 X30.4777 Y16.3214
G01 X30.4726 Y16.3217
G01 X30.4504 Y16.3245
G01 X30.4386 Y16.3275
G01 X30.4341 Y16.3292
G01 X30.4111 Y16.3404
G01 X30.4007 Y16.3477
G01 X30.3905 Y16.3565
G01 X24.5317 Y22.2152
G01 X24.2606 Y22.3275
G01 X7.4533 Y22.3275
G01 X7.1822 Y22.2152
G01 X3.1648 Y18.1978
G01 X3.0525 Y17.9267
G01 X3.0525 Y15.6336
G01 X3.0522 Y15.6285
G01 X3.0508 Y15.6186
G01 X3.0498 Y15.6087
G01 X3.0489 Y15.6039
G01 X3.0464 Y15.5946
G01 X3.0438 Y15.5881
G01 X3.0394 Y15.5797
G01 X3.0346 Y15.5690
G01 X3.0271 Y15.5578
G00 Z5.0000
G00 X0.9662 Y22.7110
G01 F650.00
G01 Z-0.0550
G01 F650.00
G01 X0.9661 Y1.0922
G01 X0.9682 Y1.0701
G01 X0.9703 Y1.0598
G01 X0.9725 Y1.0531
G01 X0.9827 Y1.0296
G01 X0.9899 Y1.0185
G01 X1.0066 Y0.9999
G01 X1.0118 Y0.9950
G01 X1.0204 Y0.9888
G01 X1.0407 Y0.9772
G01 X1.0451 Y0.9752
G01 X1.0533 Y0.9722
G01 X1.0578 Y0.9710
G01 X1.0689 Y0.9692
G01 X1.0804 Y0.9668
G01 X1.0922 Y0.9661
G01 X35.7178 Y0.9661
G01 X35.7399 Y0.9682
G01 X35.7502 Y0.9703
G01 X35.7569 Y0.9725
G01 X35.7804 Y0.9827
G01 X35.7915 Y0.9899
G01 X35.8101 Y1.0066
G01 X35.8150 Y1.0118
G01 X35.8212 Y1.0204
G01 X35.8328 Y1.0407
G01 X35.8348 Y1.0451
G01 X35.8378 Y1.0533
G01 X35.8390 Y1.0578
G01 X35.8408 Y1.0689
G01 X35.8432 Y1.0804
G01 X35.8439 Y1.0922
G01 X35.8439 Y22.7078
G01 X35.8418 Y22.7299
G01 X35.8397 Y22.7402
G01 X35.8375 Y22.7469
G01 X35.8273 Y22.7704
G01 X35.8201 Y22.7815
G01 X35.8034 Y22.8001
G01 X35.7982 Y22.8050
G01 X35.7896 Y22.8112
G01 X35.7693 Y22.8228
G01 X35.7649 Y22.8248
G01 X35.7567 Y22.8278
G01 X35.7522 Y22.8290
G01 X35.7411 Y22.8308
G01 X35.7296 Y22.8332
G01 X35.7178 Y22.8339
G01 X1.0922 Y22.8339
G01 X1.0701 Y22.8318
G01 X1.0625 Y22.8304
G01 X1.0531 Y22.8275
G01 X1.0317 Y22.8183
G01 X1.0256 Y22.8149
G01 X1.0185 Y22.8101
G01 X0.9999 Y22.7934
G01 X0.9950 Y22.7882
G01 X0.9901 Y22.7817
G01 X0.9772 Y22.7593
G01 X0.9752 Y22.7549
G01 X0.9722 Y22.7467
G01 X0.9710 Y22.7422
G01 X0.9692 Y22.7311
G01 X0.9668 Y22.7196
G01 X0.9662 Y22.7110
G00 X0.9662 Y22.7110
G01 F650.00
G01 Z-0.1100
G01 F650.00
G01 X0.9661 Y1.0922
G01 X0.9682 Y1.0701
G01 X0.9703 Y1.0598
G01 X0.9725 Y1.0531
G01 X0.9827 Y1.0296
G01 X0.9899 Y1.0185
G01 X1.0066 Y0.9999
G01 X1.0118 Y0.9950
G01 X1.0204 Y0.9888
G01 X1.0407 Y0.9772
G01 X1.0451 Y0.9752
G01 X1.0533 Y0.9722
G01 X1.0578 Y0.9710
G01 X1.0689 Y0.9692
G01 X1.0804 Y0.9668
G01 X1.0922 Y0.9661
G01 X35.7178 Y0.9661
G01 X35.7399 Y0.9682
G01 X35.7502 Y0.9703
G01 X35.7569 Y0.9725
G01 X35.7804 Y0.9827
G01 X35.7915 Y0.9899
G01 X35.8101 Y1.0066
G01 X35.8150 Y1.0118
G01 X35.8212 Y1.0204
G01 X35.8328 Y1.0407
G01 X35.8348 Y1.0451
G01 X35.8378 Y1.0533
G01 X35.8390 Y1.0578
G01 X35.8408 Y1.0689
G01 X35.8432 Y1.0804
G01 X35.8439 Y1.0922
G01 X35.8439 Y22.7078
G01 X35.8418 Y22.7299
G01 X35.8397 Y22.7402
G01 X35.8375 Y22.7469
G01 X35.8273 Y22.7704
G01 X35.8201 Y22.7815
G01 X35.8034 Y22.8001
G01 X35.7982 Y22.8050
G01 X35.7896 Y22.8112
G01 X35.7693 Y22.8228
G01 X35.7649 Y22.8248
G01 X35.7567 Y22.8278
G01 X35.7522 Y22.8290
G01 X35.7411 Y22.8308
G01 X35.7296 Y22.8332
G01 X35.7178 Y22.8339
G01 X1.0922 Y22.8339
G01 X1.0701 Y22.8318
G01 X1.0625 Y22.8304
G01 X1.0531 Y22.8275
G01 X1.0317 Y22.8183
G01 X1.0256 Y22.8149
G01 X1.0185 Y22.8101
G01 X0.9999 Y22.7934
G01 X0.9950 Y22.7882
G01 X0.9901 Y22.7817
G01 X0.9772 Y22.7593
G01 X0.9752 Y22.7549
G01 X0.9722 Y22.7467
G01 X0.9710 Y22.7422
G01 X0.9692 Y22.7311
G01 X0.9668 Y22.7196
G01 X0.9662 Y22.7110
G00 Z5.0000
M05
G00 Z5.0000
G00 Z90.00
G00 X0.0 Y0.0

M02